!!!OTL: 912a. Das Rautenstraeuchelein oder Traum eines Ehemannes.
!!!ARE: Europa, Mitteleuropa, Deutschland
!!!SCT: E0912
!!!TXL: @@DE
!!!YEM: Copyright 1995, estate of Helmut Schaffrath.
**kern	**text
*ICvox	*
*M4/4	*
*met(c)	*
*k[b-]	*
*F:	*
!LO:TX:a:t=Forſter II, 1540, Nr. 21.	!
{4f	Gar
=1	=1
2cc	hoch
2a	auf
=2	=2
2b-	je-
2cc	-nem
=3	=3
2a	Ber-
4a}	-ge,
{4f	gar
=4	=4
2cc	hoch
2a	auf
=5	=5
2b-	je-
4cc	-nem
[4cc	Ber-
=6	=6
4cc]	.
8b-L	.
8aJ	.
2g	.
=7	=7
2f	-ge
4r}	.
{4c	do
=8	=8
4f	ſteht
4g	ein
4a	Rautenſträu-
4b-	.
=9	=9
4.cc	.
8b-	-che-
4a}	-lein
{4a	ge-
=10	=10
4g	-wunden
4g	.
4g	aus
4g	der
=11	=11
(2d	Er-
2g)	.
=12	=12
(4.f	-den.
16eL	.
16dJ	.
4c)}	.
{4c	do
=13	=13
4f	ſteht
4g	ein
4a	Rautenſträu-
4b-	.
=14	=14
4.cc	.
8b-	-che-
4a}	-lein
{4a	ge-
=15	=15
4g	-wunden
4g	.
4g	aus
4g	der
=16	=16
2d	Er-
2g	.
=17	=17
1f;}	-den.
==	==
!!!AGN: Ehestands - Lied
!!!ONB: ESAC (Essen Associative Code) Database: ERK2
!!!AMT: simple quadruple
!!!AIN: vox
!!!EED: Helmut Schaffrath
!!!EEV: 1.0
!!!GTL: Hochzeits- und Ehrstandslieder, nebst Nonnenklagen
!!!URL-scan: https://rosdok.uni-rostock.de/mcrviewer/recordIdentifier/rosdok_ppn745177662/iview2/phys_0703.iview2?x=176.82851923638077&y=1875.7796432380565&scale=0.7029437510502773&rotation=0&layout=singlePageLayout
!!!ENC: Anna Maria Matuszewska
!!!EEV: 2024/12/18
*-	*-
